X:481
T:The General
S:Bruce & Emmett's Drummers and Fifers Guide (1862), p. 48
M:2/4
L:1/8
K:G
%%MIDI program 72
%%MIDI transpose 8
%%MIDI ratio 3 1
D|Gd/e/ dB|cd B2|cB/c/ AG|Ad G:|G|.G(F/G/) .A(G/A/)|.B(A/B/) .c(B/c/)|de d2|
.c(B/c/) AG|Ad G2|.G(F/G/) .A(G/A/)|.B(A/B/) .c(B/c/)|de d2|.c(B/c/) AG|Ad G||
